X: 437
T: Brushy Fork of John's Creek
B: jims roots
M:C|
L:1/8
R: Reel
Q: 1/4=100
K:Amix
V:1 
|:"A"ga3 abae |"G"g2g2 gbag |"A"efgb agef |"E"gedB "A"A2A2 :|
|:"A"Bde2 e2ed | Bded Bdef | g2f2 e2dB | "E"ABdB"A"A2A2 |
  "A"Bde2 e2ed | Bded Bdef | g2f2 e2dB | "E"ABdB"A"A2A2 :|
% abcbook-tune_id 6298c245c620ac5a9a665295


% abcbook-boost 0
% abcbook-tablature 
% abcbook-transpose 
% abcbook-lastupdated 1654178373521
% abcbook-soundfonts 
% abcbook-repeats 1


